X: 110
M: 2/4
L: 1/8
K: G
|:\
d(b/g/) d(c'/a/) |d(b/g/) db | c'agf | g2g2 :|
|:\
bg e(f/g/) | agfd | e2^c2 | d(d/e/) dd |\
bg e(f/g/) | af e(f/g/) | ged^c | d=cBA !segno!|]
!segno![|\
 d2(cB) | .B(dcB) | e2(dc) | .c(edc) |\
.d(dcB) | .B(dcB) | cAGF | G2G2 :|
|:\
ec'Tc'2 | dbTb2 | c(a/g/) ag | fede !segno! |]


